X:236
T: Der Hammerschmiedssohn
N: Q0088G
O: Mitteleuropa, Deutschland / Frankreich, Lothringen, Baumbiedersdorf
N: Strophenvariante zu Q0088F.
R: Ballade, Verfuehrung, Schwangerschaft, Mord
M: 2/4
L: 1/8
K: F
C | F2EF | G3A | cBAB | G2z
A | c2BA | G2A2 | F2FD | D2z
G | GGG2 | F2B2 | A2GE | F2z

